SF_Symbols/tennis.racket.svg

<?xml version="1.0" encoding="UTF-8"?>
<svg xmlns="http://www.w3.org/2000/svg" xmlns:xlink="http://www.w3.org/1999/xlink" width="24" height="24" viewBox="0 0 24 24" version="1.1">
<g id="surface1">
<path style=" stroke:none;fill-rule:nonzero;fill:rgb(100%,100%,100%);fill-opacity:1;" d="M 21.480469 2.042969 C 20.839844 1.402344 20.105469 0.945312 19.269531 0.667969 C 18.4375 0.382812 17.566406 0.273438 16.65625 0.34375 C 15.746094 0.414062 14.847656 0.652344 13.957031 1.0625 C 13.078125 1.464844 12.265625 2.039062 11.519531 2.78125 C 10.660156 3.640625 10.039062 4.59375 9.65625 5.636719 C 9.273438 6.671875 9.078125 7.714844 9.0625 8.769531 C 9.046875 9.546875 9.007812 10.265625 8.9375 10.917969 C 8.867188 11.5625 8.726562 12.183594 8.511719 12.78125 C 8.300781 13.378906 7.984375 13.984375 7.550781 14.605469 C 7.128906 15.214844 6.554688 15.882812 5.832031 16.605469 L 6.917969 17.675781 C 7.640625 16.960938 8.304688 16.394531 8.917969 15.980469 C 9.527344 15.554688 10.128906 15.238281 10.71875 15.03125 C 11.316406 14.824219 11.9375 14.683594 12.582031 14.613281 C 13.230469 14.539062 13.945312 14.484375 14.730469 14.457031 C 15.804688 14.421875 16.859375 14.222656 17.886719 13.855469 C 18.914062 13.480469 19.859375 12.859375 20.730469 11.988281 C 21.472656 11.246094 22.046875 10.433594 22.457031 9.550781 C 22.867188 8.664062 23.109375 7.765625 23.175781 6.855469 C 23.246094 5.945312 23.140625 5.074219 22.855469 4.238281 C 22.578125 3.40625 22.117188 2.671875 21.480469 2.042969 Z M 20.363281 3.144531 C 21.046875 3.832031 21.472656 4.617188 21.644531 5.5 C 21.828125 6.375 21.746094 7.277344 21.40625 8.207031 C 21.074219 9.140625 20.480469 10.027344 19.625 10.875 C 18.765625 11.730469 17.863281 12.328125 16.925781 12.667969 C 15.996094 13.007812 15.09375 13.089844 14.21875 12.917969 C 13.34375 12.742188 12.566406 12.316406 11.886719 11.636719 C 11.199219 10.953125 10.765625 10.175781 10.59375 9.300781 C 10.421875 8.425781 10.503906 7.519531 10.84375 6.582031 C 11.183594 5.644531 11.78125 4.75 12.636719 3.894531 C 13.488281 3.046875 14.382812 2.453125 15.3125 2.113281 C 16.242188 1.773438 17.144531 1.691406 18.019531 1.863281 C 18.902344 2.039062 19.683594 2.464844 20.363281 3.144531 Z M 10.769531 12.75 C 10.917969 12.910156 11.078125 13.054688 11.25 13.1875 C 11.421875 13.3125 11.601562 13.429688 11.78125 13.542969 C 11.265625 13.632812 10.765625 13.769531 10.269531 13.957031 C 9.785156 14.144531 9.285156 14.410156 8.769531 14.75 C 9.117188 14.234375 9.382812 13.734375 9.5625 13.25 C 9.75 12.757812 9.886719 12.253906 9.96875 11.738281 C 10.078125 11.925781 10.203125 12.105469 10.332031 12.269531 C 10.472656 12.4375 10.617188 12.597656 10.769531 12.75 Z M 1.167969 21.636719 L 1.855469 22.332031 C 2.097656 22.570312 2.375 22.6875 2.6875 22.6875 C 3.007812 22.6875 3.289062 22.570312 3.53125 22.332031 L 7.5625 18.292969 C 7.804688 18.046875 7.925781 17.765625 7.925781 17.449219 C 7.925781 17.128906 7.804688 16.851562 7.5625 16.613281 L 6.875 15.917969 C 6.632812 15.679688 6.351562 15.5625 6.03125 15.5625 C 5.71875 15.5625 5.441406 15.679688 5.199219 15.917969 L 1.167969 19.96875 C 0.921875 20.203125 0.800781 20.480469 0.800781 20.792969 C 0.800781 21.109375 0.921875 21.390625 1.167969 21.636719 Z M 9.875 8.644531 L 10.394531 9.167969 L 17.90625 1.65625 L 17.386719 1.125 Z M 10.457031 11.042969 L 10.96875 11.5625 L 20.292969 2.25 L 19.792969 1.71875 Z M 11.949219 12.542969 L 12.480469 13.0625 L 21.800781 3.738281 L 21.28125 3.207031 Z M 14.355469 13.125 L 14.863281 13.65625 L 22.386719 6.136719 L 21.855469 5.613281 Z M 16.613281 1.417969 L 22.03125 6.824219 L 22.550781 6.300781 L 17.136719 0.894531 Z M 14.261719 1.90625 L 21.59375 9.261719 L 22.136719 8.730469 L 14.78125 1.386719 Z M 12.738281 3.199219 L 20.292969 10.769531 L 20.832031 10.238281 L 13.261719 2.667969 Z M 11.417969 4.519531 L 18.96875 12.09375 L 19.5 11.5625 L 11.9375 3.988281 Z M 10.125 6.042969 L 17.46875 13.394531 L 17.988281 12.875 L 10.636719 5.53125 Z M 9.613281 8.375 L 15.0625 13.832031 L 15.59375 13.300781 L 10.136719 7.855469 Z M 9.613281 8.375 "/>
</g>
</svg>

<svg xmlns="http://www.w3.org/2000/svg" width="24" height="24"><path style="stroke:none;fill-rule:nonzero;fill:#fff;fill-opacity:1" d="M21.48 2.043A5.578 5.578 0 0 0 19.27.668a6.454 6.454 0 0 0-2.614-.324 7.88 7.88 0 0 0-2.699.719c-.879.402-1.691.976-2.437 1.718-.86.86-1.48 1.813-1.864 2.856a9.342 9.342 0 0 0-.594 3.133c-.011.718-.05 1.433-.124 2.148a8.011 8.011 0 0 1-.426 1.863 7.546 7.546 0 0 1-.961 1.824c-.422.61-.996 1.278-1.719 2l1.086 1.07c.723-.714 1.387-1.28 2-1.695a7.493 7.493 0 0 1 1.8-.949 8.415 8.415 0 0 1 1.864-.418 26.35 26.35 0 0 1 2.148-.156 10.365 10.365 0 0 0 3.157-.602c1.027-.375 1.972-.996 2.843-1.867a8.485 8.485 0 0 0 1.727-2.437 7.71 7.71 0 0 0 .719-2.696 6.462 6.462 0 0 0-.32-2.617 5.522 5.522 0 0 0-1.376-2.195Zm-1.117 1.102c.684.687 1.11 1.472 1.282 2.355.183.875.101 1.777-.239 2.707-.332.934-.926 1.82-1.781 2.668-.86.855-1.762 1.453-2.7 1.793-.929.34-1.831.422-2.706.25-.875-.176-1.653-.602-2.332-1.281-.688-.684-1.121-1.461-1.293-2.336-.172-.875-.09-1.781.25-2.719.34-.937.937-1.832 1.793-2.687.851-.848 1.746-1.442 2.675-1.782.93-.34 1.833-.422 2.708-.25.882.176 1.664.602 2.343 1.282ZM10.77 12.75c.148.16.308.305.48.438.172.124.352.242.531.355a8.094 8.094 0 0 0-1.511.414 8.1 8.1 0 0 0-1.5.793c.324-.469.59-.969.793-1.5.187-.492.324-.996.406-1.512.11.188.234.367.363.532.14.168.285.328.438.48Zm-9.602 8.887.687.695a1.168 1.168 0 0 0 1.676 0l4.031-4.039c.231-.219.364-.523.364-.844 0-.32-.121-.597-.364-.836l-.687-.695a1.168 1.168 0 0 0-1.676 0l-4.031 4.05c-.234.212-.367.509-.367.825 0 .316.12.598.367.844ZM9.875 8.645l.52.523 7.511-7.512-.52-.531Zm.582 2.398.512.52 9.324-9.313-.5-.531Zm1.492 1.5.531.52 9.32-9.325-.519-.531Zm2.406.582.508.531 7.524-7.52-.532-.523Zm2.258-11.707 5.418 5.406.52-.523L17.137.895Zm-2.351.488 7.332 7.356.543-.532-7.356-7.343ZM12.738 3.2l7.555 7.57.539-.53-7.57-7.571Zm-1.32 1.32 7.55 7.575.532-.531-7.563-7.575Zm-1.293 1.524 7.344 7.352.52-.52-7.352-7.344Zm-.512 2.332 5.45 5.457.53-.531-5.456-5.446Zm0 0"/></svg>
